src/symbols/transport-sign/1F6B0.svg

<svg id="emoji" viewBox="0 0 72 72" xmlns="http://www.w3.org/2000/svg">
  <g id="grid">
    <path fill="#b3b3b3" d="M68,4V68H4V4H68m4-4H0V72H72V0Z"/>
    <path fill="none" stroke="#00a5ff" stroke-miterlimit="10" stroke-width="0.1" d="M12.923,10.9583H59.0769A1.9231,1.9231,0,0,1,61,12.8814V59.0352a1.9231,1.9231,0,0,1-1.9231,1.9231H12.9231A1.9231,1.9231,0,0,1,11,59.0352V12.8813A1.923,1.923,0,0,1,12.923,10.9583Z"/>
    <rect x="16" y="4" rx="2.2537" width="40" height="64" fill="none" stroke="#00a5ff" stroke-miterlimit="10" stroke-width="0.1"/>
    <rect x="16" y="4" rx="2.2537" width="40" height="64" transform="translate(72) rotate(90)" fill="none" stroke="#00a5ff" stroke-miterlimit="10" stroke-width="0.1"/>
    <circle cx="36" cy="36" r="29" fill="none" stroke="#00a5ff" stroke-miterlimit="10" stroke-width="0.1"/>
  </g>
  <g id="color">
    <path fill="#61b2e4" stroke="none" stroke-linecap="round" stroke-linejoin="round" stroke-miterlimit="10" stroke-width="2" d="M60,61.0208H12c-0.5523,0-1-0.4477-1-1v-48c0-0.5523,0.4477-1,1-1h48c0.5523,0,1,0.4477,1,1v48 C61,60.5731,60.5523,61.0208,60,61.0208z"/>
    <path fill="#FFFFFF" stroke="none" d="M26.4479,45.3958l2.1368,10.3194l9.6236,0.0556l2.1146-10.1667c0,0-7-4.375-14.0833-0.2083"/>
    <path fill="#FFFFFF" stroke="none" stroke-linecap="round" stroke-linejoin="round" stroke-miterlimit="10" stroke-width="2" d="M58.5,24.6808v4.87c0,0.56-0.45,1-1,1H40.62c-2.84,0-3.51,2.46-3.66,3.83c-0.06,0.5-0.48,0.88-0.99,0.88h-5.02 c-0.55,0-0.99-0.43-1-0.9801c-0.0101-2.7999,0.82-10.5999,10.6301-10.5999H45.75v-4.45H41v-3.21h13.25v3.21H49.5v4.45h8 C58.05,23.6808,58.5,24.1308,58.5,24.6808z"/>
  </g>
  <g id="hair"/>
  <g id="skin"/>
  <g id="skin-shadow"/>
  <g id="line">
    <path fill="none" stroke="#000000" stroke-linecap="round" stroke-linejoin="round" stroke-miterlimit="10" stroke-width="2" d="M60,61.0208H12c-0.5523,0-1-0.4477-1-1v-48c0-0.5523,0.4477-1,1-1h48c0.5523,0,1,0.4477,1,1v48 C61,60.5731,60.5523,61.0208,60,61.0208z"/>
    <polyline fill="none" stroke="#000000" stroke-linecap="round" stroke-linejoin="round" stroke-miterlimit="10" stroke-width="2" points="24.3333,34.8184 28.2619,55.7708 38.7381,55.7708 42.6667,34.8184"/>
    <path fill="none" stroke="#000000" stroke-linecap="round" stroke-linejoin="round" stroke-miterlimit="10" stroke-width="2" d="M26.7336,45.0446c0,0,6.5477-2.619,13.0953,0"/>
    <path fill="none" stroke="#000000" stroke-linecap="round" stroke-linejoin="round" stroke-miterlimit="10" stroke-width="2" d="M58.5,24.6808v4.87c0,0.56-0.45,1-1,1H40.62c-2.84,0-3.51,2.46-3.66,3.83c-0.06,0.5-0.48,0.88-0.99,0.88h-5.02 c-0.55,0-0.99-0.43-1-0.9801c-0.0101-2.7999,0.82-10.5999,10.6301-10.5999H45.75v-4.45H41v-3.21h13.25v3.21H49.5v4.45h8 C58.05,23.6808,58.5,24.1308,58.5,24.6808z"/>
  </g>
</svg>

<svg id="emoji" version="1.1" viewBox="0 0 72 72" xmlns="http://www.w3.org/2000/svg">
 <g id="grid">
  <path d="M68,4V68H4V4H68m4-4H0V72H72V0Z" fill="#b3b3b3"/>
  <path d="m12.92 10.96h46.15a1.923 1.923 0 0 1 1.923 1.923v46.15a1.923 1.923 0 0 1-1.923 1.923h-46.15a1.923 1.923 0 0 1-1.923-1.923v-46.15a1.923 1.923 0 0 1 1.923-1.923z" fill="none" stroke="#00a5ff" stroke-miterlimit="10" stroke-width=".1"/>
  <rect x="16" y="4" width="40" height="64" rx="2.254" fill="none" stroke="#00a5ff" stroke-miterlimit="10" stroke-width=".1"/>
  <rect transform="translate(72) rotate(90)" x="16" y="4" width="40" height="64" rx="2.254" fill="none" stroke="#00a5ff" stroke-miterlimit="10" stroke-width=".1"/>
  <circle cx="36" cy="36" r="29" fill="none" stroke="#00a5ff" stroke-miterlimit="10" stroke-width=".1"/>
 </g>
 <g id="color">
  <rect x="12" y="12" width="48" height="47.83" fill="#92d3f5"/>
  <path transform="translate(-1.3 .2001)" d="m26.45 45.4 2.137 10.32 9.624 0.0556 2.115-10.17s-7-4.375-14.08-0.2083" fill="#fff"/>
  <path transform="translate(-1.3 .2001)" d="m58.5 24.68v4.87c0 0.56-0.45 1-1 1h-16.88c-2.84 0-3.51 2.46-3.66 3.83-0.06 0.5-0.48 0.88-0.99 0.88h-5.02c-0.55 0-0.99-0.43-1-0.9801-0.0101-2.8 0.82-10.6 10.63-10.6h5.17v-4.45h-4.75v-3.21h13.25v3.21h-4.75v4.45h8c0.55 0 1 0.45 1 1z" fill="#fff" stroke-linecap="round" stroke-linejoin="round" stroke-miterlimit="10" stroke-width="2"/>
 </g>
 <g id="line" fill="none" stroke="#000" stroke-linecap="round" stroke-linejoin="round" stroke-width="2">
  <rect x="12" y="12" width="48" height="48" fill="none" stroke="#000" stroke-linejoin="round"/>
  <polyline transform="translate(-1.3 .2001)" points="24.33 34.82 28.26 55.77 38.74 55.77 42.67 34.82" stroke-miterlimit="10"/>
  <path transform="translate(-1.3 .2001)" d="m26.73 45.04s6.548-2.619 13.1 0" stroke-miterlimit="10"/>
  <path transform="translate(-1.3 .2001)" d="m58.5 24.68v4.87c0 0.56-0.45 1-1 1h-16.88c-2.84 0-3.51 2.46-3.66 3.83-0.06 0.5-0.48 0.88-0.99 0.88h-5.02c-0.55 0-0.99-0.43-1-0.9801-0.0101-2.8 0.82-10.6 10.63-10.6h5.17v-4.45h-4.75v-3.21h13.25v3.21h-4.75v4.45h8c0.55 0 1 0.45 1 1z" stroke-miterlimit="10"/>
 </g>
</svg>
